public/img/usage/vkusno.svg

<svg fill="none" height="64" viewBox="0 0 82 64" width="82" xmlns="http://www.w3.org/2000/svg" xmlns:xlink="http://www.w3.org/1999/xlink"><clipPath id="a"><path d="m0 0h81.2698v64h-81.2698z"/></clipPath><g clip-path="url(#a)" opacity=".7"><path d="m14.9793 63.9909c8.2729 0 14.9794-6.7065 14.9794-14.9793 0-8.2729-6.7065-14.9794-14.9794-14.9794-8.27282 0-14.9793 6.7065-14.9793 14.9794 0 8.2728 6.70648 14.9793 14.9793 14.9793z" fill="#e8410f"/><g fill="#ef7403"><path d="m29.3009.594234c-.0811-.140062-.1899-.262125-.3198-.358738s-.278-.1657493-.4355-.2031888c-.1575-.03743948-.3209-.0423967-.4803-.0145689-.1595.0278277-.3116.0878567-.4471.1764227-2.644 1.707109-4.6777 4.209579-5.8082 7.146779-.0578.15238-.1125.30409-.164.45514-.641 1.93157-.8619 3.97782-.6478 6.00162.2141 2.0239.8582 3.9786 1.8891 5.7334 8.3687 14.4895 16.7374 28.979 25.1061 43.4685.0785.1357.1831.2546.3077.3499.1246.0952.2668.1649.4184.2051.1516.0401.3096.0499.4651.0288.1554-.021.3051-.0726.4405-.1517 1.8634-1.067 3.4458-2.5624 4.6165-4.3624 1.8096-2.8196 2.1844-5.8336 2.0212-8.3596-.1862-2.6255-.9751-5.1727-2.3055-7.4438-8.2188-14.2239-16.4376-28.4478-24.6564-42.671666z"/><path d="m54.2735.594234c-.0811-.140062-.1899-.262125-.3197-.358738-.1299-.096613-.2781-.1657493-.4355-.2031888-.1575-.03743948-.3209-.0423967-.4804-.0145689-.1594.0278277-.3115.0878567-.447.1764227-2.644 1.707109-4.6778 4.209579-5.8082 7.146779-.0578.15238-.1125.30409-.1641.45514-.641 1.93157-.8618 3.97782-.6477 6.00162.214 2.0239.8581 3.9786 1.889 5.7334 8.3687 14.4895 16.7374 28.979 25.1061 43.4685.0785.1357.1831.2546.3077.3499.1246.0952.2668.1649.4184.2051.1517.0401.3097.0499.4651.0288.1554-.021.3052-.0726.4406-.1517 1.8633-1.067 3.4458-2.5624 4.6164-4.3624 1.8096-2.8196 2.1845-5.8336 2.0213-8.3596-.1862-2.6255-.9752-5.1727-2.3056-7.4438-8.2188-14.2239-16.4376-28.4478-24.6564-42.671666z"/></g></g></svg>

<svg width="82" height="64" viewBox="0 0 82 64" fill="none" xmlns="http://www.w3.org/2000/svg">
<g style="mix-blend-mode:luminosity" opacity="0.7" clip-path="url(#clip0_242_4808)">
<path d="M14.9793 63.9909C23.2522 63.9909 29.9587 57.2844 29.9587 49.0116C29.9587 40.7387 23.2522 34.0322 14.9793 34.0322C6.70648 34.0322 0 40.7387 0 49.0116C0 57.2844 6.70648 63.9909 14.9793 63.9909Z" fill="#E8410F"/>
<path d="M29.3009 0.594234C29.2198 0.454172 29.111 0.332109 28.9811 0.235496C28.8512 0.138883 28.7031 0.0697467 28.5456 0.0323072C28.3881 -0.00513228 28.2247 -0.0100895 28.0653 0.0177383C27.9058 0.045566 27.7537 0.105595 27.6182 0.194161C24.9742 1.90127 22.9405 4.40374 21.81 7.34094C21.7522 7.49332 21.6975 7.64503 21.646 7.79608C21.005 9.72765 20.7841 11.7739 20.9982 13.7977C21.2123 15.8216 21.8564 17.7763 22.8873 19.5311C31.256 34.0206 39.6247 48.5101 47.9934 62.9996C48.0719 63.1353 48.1765 63.2542 48.3011 63.3495C48.4257 63.4447 48.5679 63.5144 48.7195 63.5546C48.8711 63.5947 49.0291 63.6045 49.1846 63.5834C49.34 63.5624 49.4897 63.5108 49.6251 63.4317C51.4885 62.3647 53.0709 60.8693 54.2416 59.0693C56.0512 56.2497 56.426 53.2357 56.2628 50.7097C56.0766 48.0842 55.2877 45.537 53.9573 43.2659C45.7385 29.042 37.5197 14.8181 29.3009 0.594234Z" fill="#EF7403"/>
<path d="M54.2735 0.594234C54.1924 0.454172 54.0836 0.332109 53.9538 0.235496C53.8239 0.138883 53.6757 0.0697467 53.5183 0.0323072C53.3608 -0.00513228 53.1974 -0.0100895 53.0379 0.0177383C52.8785 0.045566 52.7264 0.105595 52.5909 0.194161C49.9469 1.90127 47.9131 4.40374 46.7827 7.34094C46.7249 7.49332 46.6702 7.64503 46.6186 7.79608C45.9776 9.72765 45.7568 11.7739 45.9709 13.7977C46.1849 15.8216 46.829 17.7763 47.8599 19.5311C56.2286 34.0206 64.5973 48.5101 72.966 62.9996C73.0445 63.1353 73.1491 63.2542 73.2737 63.3495C73.3983 63.4447 73.5405 63.5144 73.6921 63.5546C73.8438 63.5947 74.0018 63.6045 74.1572 63.5834C74.3126 63.5624 74.4624 63.5108 74.5978 63.4317C76.4611 62.3647 78.0436 60.8693 79.2142 59.0693C81.0238 56.2497 81.3987 53.2357 81.2355 50.7097C81.0493 48.0842 80.2603 45.537 78.9299 43.2659C70.7111 29.042 62.4923 14.8181 54.2735 0.594234Z" fill="#EF7403"/>
</g>
<defs>
<clipPath id="clip0_242_4808">
<rect width="81.2698" height="64" fill="white"/>
</clipPath>
</defs>
</svg>
